build/images/badges_privat2.svg

<?xml version="1.0" encoding="UTF-8"?>
<svg width="39px" height="32px" viewBox="0 0 39 32" version="1.1" xmlns="http://www.w3.org/2000/svg" xmlns:xlink="http://www.w3.org/1999/xlink">
    <!-- Generator: sketchtool 63.1 (101010) - https://sketch.com -->
    <title>7A6E4A79-98EA-4F46-9DAD-81D04D71A927</title>
    <desc>Created with sketchtool.</desc>
    <g id="Page-1" stroke="none" stroke-width="1" fill="none" fill-rule="evenodd">
        <g id="Kupa-shop---elements" transform="translate(-107.000000, -404.000000)" fill-rule="nonzero">
            <g id="badges/privat2" transform="translate(107.000000, 404.000000)">
                <g id="diagram" transform="translate(16.000000, 16.000000) scale(-1, 1) translate(-16.000000, -16.000000) ">
                    <path d="M16.9760957,17.4785015 C15.5876261,17.4764841 14.4620478,16.3525107 14.458013,14.9639989 L14.423087,3 C6.45048261,3.04160996 0,9.5168766 0,17.4995587 C0,25.5079633 6.49183913,32 14.5,32 C22.5081609,32 29,25.5079633 29,17.4995587 C29,17.4984239 29,17.497163 29,17.4960281 L16.9760957,17.4785015 Z" id="Path" fill="#F4D118"></path>
                    <path d="M31.99826,14.1020002 C31.5115778,6.51085976 25.4509921,0.44564865 17.8881363,0.00144563113 C17.8717959,0.000525684046 17.8554555,0 17.8392458,0 C17.6255135,0 17.4192324,0.0821381322 17.2630183,0.230643875 C17.0949083,0.390320404 16.9993497,0.612947598 17,0.845431368 L17.0410504,14.9793669 L31.1603248,15 C31.1607169,15 31.1611091,15 31.1615013,15 C31.3931427,15 31.6144569,14.9036684 31.7730241,14.733741 C31.9318527,14.5635508 32.0131625,14.3348783 31.99826,14.1020002 Z" id="Path" fill="#58AE00"></path>
                </g>
                <path d="M32.418,11.224 C30.8645747,11.224 29.6162379,11.7126553 28.6624466,12.6664466 C27.6713672,13.657526 27.1667091,14.9151449 27.1730323,16.85 L31.4073158,16.85 C31.3793519,16.1008755 31.4570753,15.5317448 31.7311592,15.1829108 C31.8894095,14.979456 32.1090324,14.888 32.382,14.888 C32.5927936,14.888 32.7673685,14.9436108 32.8923529,15.0824824 C33.0639599,15.2712593 33.124,15.5508673 33.124,15.9 C33.124,16.3951011 32.9250157,16.9266803 32.5554108,17.5016212 C32.0620759,18.2951379 31.35314,19.1821467 30.14504,20.4722337 L26.2992786,24.5 L37.598,24.5 L37.598,20.854 L34.4472682,20.854 L35.5302255,19.8483967 C36.8404557,18.6308091 37.472,17.3148528 37.472,15.918 C37.472,14.5858952 37.028972,13.4858652 36.1555534,12.6124466 C35.2410456,11.6979389 34.000345,11.224 32.418,11.224 Z" id="2" stroke="#FFFFFF" fill="#333333"></path>
            </g>
        </g>
    </g>
</svg>

<svg width="39" height="32" xmlns="http://www.w3.org/2000/svg"><g id="Page-1" stroke="none" stroke-width="1" fill="none" fill-rule="evenodd"><g id="Kupa-shop---elements" transform="translate(-107 -404)" fill-rule="nonzero"><g id="badges/privat2" transform="translate(107 404)"><g id="diagram" transform="matrix(-1 0 0 1 32 0)"><path d="M16.976 17.479a2.522 2.522 0 01-2.518-2.515L14.423 3C6.45 3.042 0 9.517 0 17.5 0 25.508 6.492 32 14.5 32S29 25.508 29 17.5v-.004l-12.024-.017z" id="Path" fill="#F4D118"/><path d="M31.998 14.102C31.512 6.511 25.451.446 17.888.002a.836.836 0 00-.625.23.845.845 0 00-.263.613l.041 14.134 14.12.021a.836.836 0 00.612-.266.846.846 0 00.225-.632z" id="Path" fill="#58AE00"/></g><path d="M32.418 11.224c-1.553 0-2.802.489-3.756 1.442-.99.992-1.495 2.25-1.489 4.184h4.234c-.028-.75.05-1.318.324-1.667.158-.204.378-.295.651-.295.21 0 .385.056.51.194.172.19.232.469.232.818 0 .495-.199 1.027-.569 1.602-.493.793-1.202 1.68-2.41 2.97L26.299 24.5h11.299v-3.646h-3.15l1.082-1.006c1.31-1.217 1.942-2.533 1.942-3.93 0-1.332-.443-2.432-1.316-3.306-.915-.914-2.156-1.388-3.738-1.388z" id="2" stroke="#FFF" fill="#333"/></g></g></g></svg>
